src/Assets/Icons/ReportsScreen/DownloadReportsComponent/download.svg

<svg width="15" height="17" viewBox="0 0 15 17" fill="none" xmlns="http://www.w3.org/2000/svg">
<path d="M13.307 13.3071V15.7261H1.21V13.3071H0V15.7261C0 16.047 0.127482 16.3548 0.354401 16.5817C0.58132 16.8086 0.889087 16.9361 1.21 16.9361H13.31C13.4689 16.9361 13.6262 16.9048 13.773 16.844C13.9199 16.7832 14.0532 16.6941 14.1656 16.5817C14.278 16.4694 14.3671 16.336 14.4279 16.1892C14.4887 16.0424 14.52 15.885 14.52 15.7261V13.3071H13.307Z" fill="white"/>
<path d="M13.31 7.258L12.457 6.405L7.86396 10.99V0H6.65396V10.99L2.06296 6.405L1.20996 7.258L7.25896 13.307L13.31 7.258Z" fill="white"/>
</svg>

<svg xmlns="http://www.w3.org/2000/svg" width="15" height="17" fill="none"><path fill="#fff" d="M13.307 13.307v2.42H1.21v-2.42H0v2.42a1.21 1.21 0 0 0 1.21 1.21h12.1a1.21 1.21 0 0 0 1.21-1.21v-2.42zM13.31 7.258l-.853-.853-4.593 4.585V0h-1.21v10.99L2.063 6.405l-.853.853 6.049 6.049z"/></svg>
